X: 2
T: MacLeod's Farewell
R: reel
M: 4/4
L: 1/8
K: Dmaj
DE|E-FBF AFEF|D/D/D DE FABd|eefd efed|ABeB dBAG|
E-F2 B AFEF|D/D/D DE FABd|eefd efdB|ABde dDDE|
FDBF AFEF|E/E/D DE FABd|eefd efed|B4 dBAG|
E-F2 B AFEF|D/D/D DE FABd|eefd efdB|ABde dABd||
A3f edfd|B/B/A Af edfd|ABdA BdAB|dBAF EFDE|
EFBF AFEF|E/E/D DE FABd|eefd efdB|ABde d~B3|
A3f edfd|B/B/A Af edfd|ABdA BdAB|dBAF EFDE|
E-FBF AFEF|E/E/D DE FABd|eefd efdB|ABde dDDE||

